public/img/DZIKRA.svg

<svg width="123" height="24" viewBox="0 0 123 24" fill="none" xmlns="http://www.w3.org/2000/svg">
<path d="M8.91944 0C11.4291 0 13.6222 0.501424 15.4988 1.50427C17.3754 2.50712 18.8224 3.92023 19.8398 5.74359C20.8799 7.54416 21.3999 9.62963 21.3999 12C21.3999 14.3476 20.8799 16.433 19.8398 18.2564C18.8224 20.0798 17.3641 21.4929 15.4649 22.4957C13.5883 23.4986 11.4065 24 8.91944 24H0V0H8.91944ZM8.54638 18.9402C10.7395 18.9402 12.4465 18.3362 13.6674 17.1282C14.8883 15.9202 15.4988 14.2108 15.4988 12C15.4988 9.78917 14.8883 8.06838 13.6674 6.83761C12.4465 5.60684 10.7395 4.99145 8.54638 4.99145H5.79933V18.9402H8.54638Z" fill="black" fill-opacity="0.3"/>
<path d="M30.8132 19.2137H41.0553V24H24.2338V19.5556L34.4081 4.78632H24.2338V0H41.0553V4.44444L30.8132 19.2137Z" fill="black" fill-opacity="0.3"/>
<path d="M50.6429 0V24H44.8436V0H50.6429Z" fill="black" fill-opacity="0.3"/>
<path d="M68.6488 24L60.645 13.4017V24H54.8457V0H60.645V10.5299L68.5809 0H75.3977L66.173 11.7607L75.7368 24H68.6488Z" fill="black" fill-opacity="0.3"/>
<path d="M90.6342 24L85.6827 14.9402H84.2922V24H78.4929V0H88.2263C90.1029 0 91.6968 0.330484 93.0082 0.991452C94.3421 1.65242 95.3369 2.5641 95.9926 3.72649C96.6483 4.8661 96.9761 6.14245 96.9761 7.55556C96.9761 9.151 96.5239 10.5755 95.6196 11.8291C94.7378 13.0826 93.4264 13.9715 91.6855 14.4957L97.1796 24H90.6342ZM84.2922 10.8034H87.8871C88.9498 10.8034 89.7411 10.5413 90.2611 10.0171C90.8037 9.49288 91.0751 8.75214 91.0751 7.79487C91.0751 6.88319 90.8037 6.16524 90.2611 5.64103C89.7411 5.11681 88.9498 4.8547 87.8871 4.8547H84.2922V10.8034Z" fill="black" fill-opacity="0.3"/>
<path d="M115.437 19.7607H106.552L105.127 24H99.0566L107.671 0H114.386L123 24H116.862L115.437 19.7607ZM113.945 15.2479L110.994 6.46154L108.078 15.2479H113.945Z" fill="black" fill-opacity="0.3"/>
</svg>

<svg width="123" height="24" fill="none" xmlns="http://www.w3.org/2000/svg"><path d="M8.92 0c2.51 0 4.702.501 6.579 1.504 1.876 1.003 3.323 2.416 4.34 4.24C20.88 7.544 21.4 9.63 21.4 12c0 2.348-.52 4.433-1.56 6.256-1.017 1.824-2.475 3.237-4.374 4.24C13.588 23.499 11.406 24 8.919 24H0V0h8.92zm-.374 18.94c2.194 0 3.9-.604 5.121-1.812C14.888 15.92 15.5 14.211 15.5 12c0-2.21-.61-3.932-1.832-5.162-1.22-1.231-2.928-1.847-5.12-1.847h-2.75v13.95h2.747zm22.267.274h10.242V24H24.234v-4.444l10.174-14.77H24.234V0h16.821v4.444l-10.242 14.77zM50.643 0v24h-5.8V0h5.8zm18.006 24l-8.004-10.598V24h-5.8V0h5.8v10.53L68.581 0h6.817l-9.225 11.76L75.737 24h-7.088zm21.985 0l-4.951-9.06h-1.39V24h-5.8V0h9.733c1.877 0 3.47.33 4.782.991 1.334.661 2.329 1.573 2.985 2.735.655 1.14.983 2.416.983 3.83 0 1.595-.452 3.02-1.356 4.273-.882 1.254-2.194 2.143-3.934 2.667L97.18 24h-6.546zm-6.342-13.197h3.595c1.063 0 1.854-.262 2.374-.786.543-.524.814-1.265.814-2.222 0-.912-.271-1.63-.814-2.154-.52-.524-1.311-.786-2.374-.786h-3.595v5.948zm31.145 8.957h-8.885L105.127 24h-6.07l8.614-24h6.715L123 24h-6.138l-1.425-4.24zm-1.492-4.512l-2.951-8.786-2.916 8.786h5.867z" fill="#000" fill-opacity=".3"/></svg>
